packages/match-icons/product/svg/narrowband.svg

<svg fill="none" height="32" viewBox="0 0 32 32" width="32" xmlns="http://www.w3.org/2000/svg" xmlns:xlink="http://www.w3.org/1999/xlink"><clipPath id="a"><path d="m0 0h32v32h-32z"/></clipPath><g clip-path="url(#a)" fill="#394762"><path d="m29 2c-.1336-.00884-.2676.01097-.3929.0581s-.2391.12049-.3338.21517-.1681.2085-.2152.33383c-.0471.12534-.0669.25929-.0581.3929v4c0 .26522-.1054.51957-.2929.70711-.1875.18753-.4419.29289-.7071.29289s-.5196-.10536-.7071-.29289c-.1875-.18754-.2929-.44189-.2929-.70711v-4c0-.79565-.3161-1.55871-.8787-2.12132s-1.3257-.87868-2.1213-.87868-1.5587.31607-2.1213.87868-.8787 1.32567-.8787 2.12132v4c0 .26522.1054.51957.2929.70711.1875.18753.4419.29289.7071.29289s.5196-.10536.7071-.29289c.1875-.18754.2929-.44189.2929-.70711v-4c0-.26522.1054-.51957.2929-.70711.1875-.18753.4419-.29289.7071-.29289s.5196.10536.7071.29289c.1875.18754.2929.44189.2929.70711v4c0 .79565.3161 1.55871.8787 2.12132s1.3257.87868 2.1213.87868 1.5587-.31607 2.1213-.87868.8787-1.32567.8787-2.12132v-4c.0088-.13361-.011-.26756-.0581-.3929-.0471-.12533-.1205-.23915-.2152-.33383s-.2085-.16804-.3338-.21517-.2593-.06694-.3929-.0581z"/><path d="m17 8.49996c-.3264-.30635-.7527-.48399-1.2-.5h-11.30001c-.32905-.00267-.65533.06018-.95985.18487-.30452.1247-.58118.30874-.81386.54142s-.41672.50934-.54142.81386c-.12469.30451-.18753.63079-.18487.95989v19c-.00266.329.06018.6553.18487.9598.1247.3045.30874.5812.54142.8139.23268.2326.50934.4167.81386.5414s.6308.1875.95985.1849h13.00001c.329.0026.6553-.0602.9598-.1849.3046-.1247.5812-.3088.8139-.5414.2327-.2327.4167-.5094.5414-.8139s.1876-.6308.1849-.9598v-17.3c-.0175-.4177-.1969-.8122-.5-1.1zm1 21.00004c.0044.0668-.0055.1337-.0291.1964-.0235.0627-.0602.1196-.1075.1669-.0474.0474-.1043.084-.167.1076-.0626.0236-.1296.0335-.1964.0291h-13.00001c-.0668.0044-.13378-.0055-.19645-.0291s-.11957-.0602-.16692-.1076c-.04734-.0473-.08402-.1042-.10758-.1669-.02357-.0627-.03347-.1296-.02905-.1964v-19c-.00442-.0668.00548-.1338.02905-.1965.02356-.0627.06024-.1196.10758-.1669.04735-.0473.10425-.084.16692-.1076s.12965-.03346.19645-.02904h11.10001l2.4 2.40004zm-11.00001-13.5c-.13361-.0089-.26756.0109-.3929.0581-.12533.0471-.23915.1204-.33383.2151s-.16804.2085-.21517.3339c-.04713.1253-.06694.2593-.0581.3929v10c-.00884.1336.01097.2675.0581.3929.04713.1253.12049.2391.21517.3338s.2085.168.33383.2152c.12534.0471.25929.0669.3929.0581h8.00001c.1336.0088.2676-.011.3929-.0581.1253-.0472.2391-.1205.3338-.2152s.1681-.2085.2152-.3338c.0471-.1254.0669-.2593.0581-.3929v-10c.0088-.1336-.011-.2676-.0581-.3929-.0471-.1254-.1205-.2392-.2152-.3339s-.2085-.168-.3338-.2151c-.1253-.0472-.2593-.067-.3929-.0581zm7.00001 4.6-2.6-2.6h2.6zm-6.00001 2.8 2.60001 2.6h-2.60001zm5.40001 2.6-5.40001-5.4v-2.6h.6l5.40001 5.4v2.6z"/></g></svg>

<svg width="32" height="32" viewBox="0 0 32 32" fill="none" xmlns="http://www.w3.org/2000/svg">
<g clip-path="url(#clip0)">
<path d="M29 2C28.8664 1.99116 28.7324 2.01097 28.6071 2.0581C28.4818 2.10523 28.368 2.17859 28.2733 2.27327C28.1786 2.36795 28.1052 2.48177 28.0581 2.6071C28.011 2.73244 27.9912 2.86639 28 3V7C28 7.26522 27.8946 7.51957 27.7071 7.70711C27.5196 7.89464 27.2652 8 27 8C26.7348 8 26.4804 7.89464 26.2929 7.70711C26.1054 7.51957 26 7.26522 26 7V3C26 2.20435 25.6839 1.44129 25.1213 0.87868C24.5587 0.31607 23.7956 0 23 0C22.2044 0 21.4413 0.31607 20.8787 0.87868C20.3161 1.44129 20 2.20435 20 3V7C20 7.26522 20.1054 7.51957 20.2929 7.70711C20.4804 7.89464 20.7348 8 21 8C21.2652 8 21.5196 7.89464 21.7071 7.70711C21.8946 7.51957 22 7.26522 22 7V3C22 2.73478 22.1054 2.48043 22.2929 2.29289C22.4804 2.10536 22.7348 2 23 2C23.2652 2 23.5196 2.10536 23.7071 2.29289C23.8946 2.48043 24 2.73478 24 3V7C24 7.79565 24.3161 8.55871 24.8787 9.12132C25.4413 9.68393 26.2044 10 27 10C27.7956 10 28.5587 9.68393 29.1213 9.12132C29.6839 8.55871 30 7.79565 30 7V3C30.0088 2.86639 29.989 2.73244 29.9419 2.6071C29.8948 2.48177 29.8214 2.36795 29.7267 2.27327C29.632 2.17859 29.5182 2.10523 29.3929 2.0581C29.2676 2.01097 29.1336 1.99116 29 2V2Z" fill="#394762"/>
<path d="M17 8.49996C16.6736 8.19361 16.2473 8.01597 15.8 7.99996H4.49999C4.17094 7.99729 3.84466 8.06014 3.54014 8.18483C3.23562 8.30953 2.95896 8.49357 2.72628 8.72625C2.4936 8.95893 2.30956 9.23559 2.18486 9.54011C2.06017 9.84462 1.99733 10.1709 1.99999 10.5V29.5C1.99733 29.829 2.06017 30.1553 2.18486 30.4598C2.30956 30.7643 2.4936 31.041 2.72628 31.2737C2.95896 31.5063 3.23562 31.6904 3.54014 31.8151C3.84466 31.9398 4.17094 32.0026 4.49999 32H17.5C17.829 32.0026 18.1553 31.9398 18.4598 31.8151C18.7644 31.6904 19.041 31.5063 19.2737 31.2737C19.5064 31.041 19.6904 30.7643 19.8151 30.4598C19.9398 30.1553 20.0027 29.829 20 29.5V12.2C19.9825 11.7823 19.8031 11.3878 19.5 11.1L17 8.49996ZM18 29.5C18.0044 29.5668 17.9945 29.6337 17.9709 29.6964C17.9474 29.7591 17.9107 29.816 17.8634 29.8633C17.816 29.9107 17.7591 29.9473 17.6964 29.9709C17.6338 29.9945 17.5668 30.0044 17.5 30H4.49999C4.43319 30.0044 4.36621 29.9945 4.30354 29.9709C4.24087 29.9473 4.18397 29.9107 4.13662 29.8633C4.08928 29.816 4.0526 29.7591 4.02904 29.6964C4.00547 29.6337 3.99557 29.5668 3.99999 29.5V10.5C3.99557 10.4332 4.00547 10.3662 4.02904 10.3035C4.0526 10.2408 4.08928 10.1839 4.13662 10.1366C4.18397 10.0893 4.24087 10.0526 4.30354 10.029C4.36621 10.0054 4.43319 9.99554 4.49999 9.99996H15.6L18 12.4V29.5ZM6.99999 16C6.86638 15.9911 6.73243 16.0109 6.60709 16.0581C6.48176 16.1052 6.36794 16.1785 6.27326 16.2732C6.17858 16.3679 6.10522 16.4817 6.05809 16.6071C6.01096 16.7324 5.99115 16.8664 5.99999 17V27C5.99115 27.1336 6.01096 27.2675 6.05809 27.3929C6.10522 27.5182 6.17858 27.632 6.27326 27.7267C6.36794 27.8214 6.48176 27.8947 6.60709 27.9419C6.73243 27.989 6.86638 28.0088 6.99999 28H15C15.1336 28.0088 15.2676 27.989 15.3929 27.9419C15.5182 27.8947 15.632 27.8214 15.7267 27.7267C15.8214 27.632 15.8948 27.5182 15.9419 27.3929C15.989 27.2675 16.0088 27.1336 16 27V17C16.0088 16.8664 15.989 16.7324 15.9419 16.6071C15.8948 16.4817 15.8214 16.3679 15.7267 16.2732C15.632 16.1785 15.5182 16.1052 15.3929 16.0581C15.2676 16.0109 15.1336 15.9911 15 16H6.99999ZM14 20.6L11.4 18H14V20.6ZM7.99999 23.4L10.6 26H7.99999V23.4ZM13.4 26L7.99999 20.6V18H8.59999L14 23.4V26H13.4Z" fill="#394762"/>
</g>
<defs>
<clipPath id="clip0">
<rect width="32" height="32" fill="white"/>
</clipPath>
</defs>
</svg>
